X:423
T:Stoney Lonesome
C:Bill Monroe - Richard Green Solo 
N:From "The Grass is Greener" Transcribed and Transcribed by Mike Stangeland
R:bluegrass
L:1/8
Q:1/4=232
M:4/4
K:A
z8 |: "A"[eAA][eAA] z[eAA] [e2A2A2] [eAA][eAA] | [=gA][eA] [gA][eA] [aA][gA] [e2A2] | 
[eAA][eAA] z[eAA] [e2A2A2] [eAA][eAA] | [ee][eA] [ed][ee] [e=c][e^c] [e2A2A2] | 
[eAA][eAA] z[eAA] [e2A2A2] [eAA][eAA] | [=gA][eA] [gA][eA] [aA][gA] [eA]f | "G"=g2 (3fgf "D"e2 [e2d2] | 
|1 [ec]"E"[ed] [ec]"A"[ed] [ee][ec] [e2A2] :|2 [ec]"E"[ed] [ec]"A"[ed] [ee][ec] [eA]=G | 
"A"A[ec] [ed][ec] A2 [ec][ed] | [ee][ed] [ec][ee] [ed][ec] [e2A2A2] | "G"=GF EF GA B=c | 
d=c Bc BA =G2 | {=G}"A"A[ec] [ed][ec] [e2A2A2] [ec][ed] | [ee][ed] [ec][ee] [ed][ec] ef | 
"G"=g2 (3fgf "D"e2 [e2d2] :| "E"[ec][ed] [ec][ed] "A"[ee][ec] [e2A2] | 


